X: 09086
T: PAM AND EDIE'S TUNE
C: Bob McQuillen 1 Mar 92
B: Bob's Note Book 9 #86
%R: reel
Z: 2018 John Chambers <jc:trillian.mit.edu>
M: C
L: 1/8
K: D
AB \
| d2DE FDFA | dfec d2AB | d2AG FAdf | gfed e2fe |
| d2DE FDFA | defg a2gf | edcB Aceg | f2d2 d2 :|
|: de \
| f2dB ABde | fafd BAde | f2dB ABde | fafd e2fg |
| a2fa gfed | edcB A2FA | dfaf gecd | e2d2 d2 :|
%%begintext align
%% 'Way up in the hills of
%% Middlesex, VT, is where Pam Abel and Edie [Mentey]
%% live. There's a small mountain right in back of the
%% house they share, and it sure is a pretty place. Pam's
%% kids, Nisa and Eric Smiley, live there, too, and I bet
%% it won't be long before Eric plays this tune
%% lickety-split on his saxophone. I hope I'm there to hear it!
%%endtext

%%sep 1 1 500

%%sep 1 1 500

